Papirus/64x64/mimetypes/application-x.allegorithmic.spp.svg

<svg width="64" height="64" version="1.1" xmlns="http://www.w3.org/2000/svg">
 <path d="m14.5 8c-1.385 0-2.5 1.115-2.5 2.5v45c0 1.385 1.115 2.5 2.5 2.5h35c1.385 0 2.5-1.115 2.5-2.5v-32.5l-15-15z" style="opacity:.2"/>
 <path d="m14.5 7c-1.385 0-2.5 1.115-2.5 2.5v45c0 1.385 1.115 2.5 2.5 2.5h35c1.385 0 2.5-1.115 2.5-2.5v-32.5l-12-3-3-12z" style="fill:#e4e4e4"/>
 <path d="m52 23-15-15v12.5c0 1.385 1.115 2.5 2.5 2.5z" style="opacity:.2"/>
 <path d="m52 22-15-15v12.5c0 1.385 1.115 2.5 2.5 2.5z" style="fill:#fafafa"/>
 <path d="m14.5 7c-1.385 0-2.5 1.115-2.5 2.5v1c0-1.385 1.115-2.5 2.5-2.5h22.5v-1z" style="fill:#ffffff;opacity:.2"/>
 <path d="m32 23-12 7 1e-6 5.5 17.584997 5.2755-5.584998 3.2245-7-4v-1l-5-1.5v5.5l12 7 12-7v-5.5l-17.584998-5.2755 5.584998-3.2245 7 4v1l5 1.5v-5.5z" style="fill:#e2222f"/>
 <path d="m32 29-5.585938 3.224609 1.140626 0.341797 4.445312-2.566406 7 4v-1zm7 5v1l5 1.5v-1zm-19 1.5v1l16.445312 4.933594 1.140626-0.658203zm0 7.5v1l12 7 12-7v-1l-12 7z" style="opacity:.1"/>
 <path d="m14.5 7c-1.385 0-2.5 1.115-2.5 2.5v1c0-1.385 1.115-2.5 2.5-2.5h22.5v-1z" style="fill:#ffffff;opacity:.2"/>
</svg>

<svg xmlns="http://www.w3.org/2000/svg" width="64" height="64" version="1.1">
 <path style="opacity:0.2" d="M 14.5,8 C 13.115,8 12,9.115 12,10.5 V 55.5 C 12,56.885 13.115,58 14.5,58 H 49.5 C 50.885,58 52,56.885 52,55.5 V 23 L 37,8 Z"/>
 <path style="fill:#e4e4e4" d="M 14.5,7 C 13.115,7 12,8.115 12,9.5 V 54.5 C 12,55.885 13.115,57 14.5,57 H 49.5 C 50.885,57 52,55.885 52,54.5 V 22 L 40,19 37,7 Z"/>
 <path style="opacity:0.2" d="M 52,23 37,8 V 20.5 C 37,21.885 38.115,23 39.5,23 Z"/>
 <path style="fill:#fafafa" d="M 52,22 37,7 V 19.5 C 37,20.885 38.115,22 39.5,22 Z"/>
 <path style="opacity:0.2;fill:#ffffff" d="M 14.5 7 C 13.115 7 12 8.115 12 9.5 L 12 10.5 C 12 9.115 13.115 8 14.5 8 L 37 8 L 37 7 L 14.5 7 z"/>
 <path style="opacity:0.2" d="M 32,24 20,31 V 36.5 L 37.585,41.776 32,45 25,41 V 40 L 20,38.5 V 44 L 32,51 44,44 V 38.5 L 26.415,33.225 32,30 39,34 V 35 L 44,36.5 V 31 Z"/>
 <path style="fill:#e2222f" d="M 32,23 20,30 V 35.5 L 37.585,40.776 32,44 25,40 V 39 L 20,37.5 V 43 L 32,50 44,43 V 37.5 L 26.415,32.225 32,29 39,33 V 34 L 44,35.5 V 30 Z"/>
</svg>
